X:257
T:Casterlenor’s Hornpipe TS.257
M:C|
L:1/8
Q:1/2=84
S:Thomas Sands’ MS,1810,Lincolnshire
R:.hornpipe
O:England;Lincolnshire
Z:vmp.Ruairidh Greig, 2011
K:A
“qu in MS”E2|A>cB>A G>BA>G|A>ce2eEFG|A>cB>A G>BA>G|A>ce2 e>cd>e|
(3fef d>f (3ede c>e|”triplet sign added”(3dcd B>d (3cBc A>c|(3BAB (3dBA (3GAB (3EFG|(3Acd (3efg a2:|
|:z2″rest added”|B2>G2 E>GB>d|c>Ae>c (3agf (3edc|(3BcA “trip.sign added”(3GAF E>GB>d|c>Ae>c (3agf (3edc|
f>d A>F (3DFA (3dfa|ecAF (3CEA (3cea|f>dc>B e>cB>A|E>AG>B A2:|]

